artwork/resources/intui/icons/shell/toolbar/run-with-coverage_dark.svg

<svg width="16" height="16" viewBox="0 0 16 16" fill="none" xmlns="http://www.w3.org/2000/svg">
<g id="run-with-coverage/dark">
<path id="Path Copy 31" d="M14.1465 10.4167L9.52962 7.61159C9.36038 7.50877 9.07485 7.42652 8.80573 7.60104C8.55628 7.76281 8.5 8.03349 8.5 8.21097V13.7902C8.5 13.9757 8.56296 14.2393 8.80643 14.3976C9.06811 14.5679 9.35084 14.4985 9.52871 14.3909L14.1456 11.5992C14.3146 11.4969 14.5022 11.2974 14.5 11.0033C14.4978 10.7128 14.3114 10.5169 14.1465 10.4167Z" stroke="#3DDC84"/>
<path id="Line 1 (Stroke)" fill-rule="evenodd" clip-rule="evenodd" d="M14 2.5C14 2.77614 13.7761 3 13.5 3H2.5C2.22386 3 2 2.77614 2 2.5V2.5C2 2.22386 2.22459 2 2.50073 2C6.71475 2 9.28525 2 13.4993 2C13.7754 2 14 2.22386 14 2.5V2.5ZM14 5.5C14 5.77614 13.7761 6 13.5 6H2.5C2.22386 6 2 5.77614 2 5.5V5.5C2 5.22386 2.22386 5 2.5 5H13.5C13.7761 5 14 5.22386 14 5.5V5.5ZM6 8.5C6 8.77614 5.77614 9 5.5 9H2.5C2.22386 9 2 8.77614 2 8.5V8.5C2 8.22386 2.22386 8 2.5 8H5.5C5.77614 8 6 8.22386 6 8.5V8.5ZM6 11.5C6 11.7761 5.77614 12 5.5 12H2.5C2.22386 12 2 11.7761 2 11.5V11.5C2 11.2239 2.22386 11 2.5 11H5.5C5.77614 11 6 11.2239 6 11.5V11.5Z" fill="#CED0D6"/>
</g>
</svg>

<svg width="16" height="16" viewBox="0 0 16 16" fill="none" xmlns="http://www.w3.org/2000/svg"><path d="M14.146 10.417L9.53 7.612c-.17-.103-.455-.185-.724-.011-.25.162-.306.432-.306.61v5.58c0 .185.063.448.306.607.262.17.545.1.723-.007l4.617-2.792c.169-.102.356-.302.354-.596a.698.698 0 0 0-.354-.586z" stroke="#3DDC84"/><path fill-rule="evenodd" clip-rule="evenodd" d="M14 2.5a.5.5 0 0 1-.5.5h-11a.5.5 0 1 1 0-1h11a.5.5 0 0 1 .5.5zm0 3a.5.5 0 0 1-.5.5h-11a.5.5 0 1 1 0-1h11a.5.5 0 0 1 .5.5zm-8 3a.5.5 0 0 1-.5.5h-3a.5.5 0 0 1 0-1h3a.5.5 0 0 1 .5.5zm0 3a.5.5 0 0 1-.5.5h-3a.5.5 0 0 1 0-1h3a.5.5 0 0 1 .5.5z" fill="#CED0D6"/></svg>
